Origami/32x32/apps/desktop-environment-gnome.svg

<svg width="32" height="32" version="1" xmlns="http://www.w3.org/2000/svg">
 <path d="m 23.167969,3 c -1.898495,0 -3.631705,0.8359048 -4.769531,1.9609375 -0.02689,0.026584 -0.03811,0.059116 -0.06445,0.085937 C 17.629713,4.0782446 16.9,4 15.317,4.0429688 14.100203,4 12.666617,5.1569901 11.970703,6.171875 11.336346,5.9148113 10.737026,6.109904 10.142578,6.253906 8.8335221,6.6955351 7.5763216,7.903319 7.1855469,9.2207029 c -0.00625,0.021061 6.03e-5,0.037627 -0.00586,0.058594 -0.2491807,0.071303 -0.5284908,0.059731 -0.7539063,0.1660156 -1.1438811,0.5396758 -2.3686938,1.9991275 -2.421875,3.4824215 -0.053181,1.483295 0.5990558,2.417677 1.1875,3.087891 0.3740244,0.425998 0.8406183,0.668028 1.28125,0.957031 -0.099253,0.299383 -0.2428959,0.570989 -0.3085937,0.890625 l 0.00195,0 c -0.669379,3.254096 0.5991548,6.314485 2.5195313,8.732422 C 10.605923,29.01364 13.41517,31 16.871094,31 20.99021,31 24.271905,27.909675 25,23.716797 25,20 22,17 27.029299,10.916018 27.679621,9.7012374 28.308589,8.3671136 27.890625,6.453125 27.681643,5.4961307 27.012727,4.4096743 26.074219,3.7929688 25.13571,3.1762632 24.117223,3 23.167969,3 Z" style="opacity:.2"/>
 <path d="m 23.167969,2 c -1.898495,0 -3.631705,0.8359048 -4.769531,1.9609375 -0.02689,0.026584 -0.03811,0.059116 -0.06445,0.085937 C 17.629713,3.0782446 16.9,3 15.317,3.0429688 14.100203,3 12.666617,4.1569901 11.970703,5.171875 11.336346,4.9148113 10.737026,5.109904 10.142578,5.253906 8.8335221,5.6955351 7.5763216,6.903319 7.1855469,8.2207029 c -0.00625,0.021061 6.03e-5,0.037627 -0.00586,0.058594 -0.2491807,0.071303 -0.5284908,0.059731 -0.7539063,0.1660156 -1.1438811,0.5396758 -2.3686938,1.9991275 -2.421875,3.4824215 -0.053181,1.483295 0.5990558,2.417677 1.1875,3.087891 0.3740244,0.425998 0.8406183,0.668028 1.28125,0.957031 -0.099253,0.299383 -0.2428959,0.570989 -0.3085937,0.890625 l 0.00195,0 c -0.669379,3.254096 0.5991548,6.314485 2.5195313,8.732422 C 10.605923,28.01364 13.41517,30 16.871094,30 20.99021,30 24.271905,26.909675 25,22.716797 25,19 22,16 27.029299,9.9160176 27.679621,8.7012374 28.308589,7.3671136 27.890625,5.453125 27.681643,4.4961307 27.012727,3.4096743 26.074219,2.7929688 25.13571,2.1762632 24.117223,2 23.167969,2 Z" style="fill:#569c3b"/>
 <path d="m23.167969 6c-4.442842 0-5.274737 7-2.775391 7 2.498989 0 7.218418-7 2.775391-7zm-7.552735 1.015625c-2.54102 0.3402147-1.645976 4.897228-0.292968 4.982422 1.352458 0.0852 2.834905-5.3226357 0.292968-4.982422zm-4.095703 1.9902344c-0.12979 0.011259-0.269316 0.039695-0.417969 0.089844-2.3788903 0.8025532-0.361969 4.1171899 0.970704 3.8945309 1.250385-0.208415 1.394143-4.1533065-0.552735-3.9843746zm-3.128906 2.9941406c-0.2123451-0.0049-0.4410529 0.042923-0.6855469 0.158203-1.9550668 0.922388 0.6583356 3.152219 1.8085938 2.806641 1.0064781-0.30251 0.3633699-2.930686-1.1230469-2.964844zm9.289063 1.001953c-3.371322-0.061966-7.8177486 1.774926-8.5761724 5.464844-0.8214009 3.993129 3.3825354 9.533203 7.7675784 9.533203 2.157214 0 4.643861-2.116122 5.109375-4.796875 0.15616-0.897876-0.624441-1.212599-1.535157-1.203125-1.162736 0.012096-2.536785 0.571547-2.445312 1.330078 0.133192 1.105063-0.55201 1.679276-1.320312 1.697266-1.048962-0.132005-1.563171-0.760826-1.701172-1.710938-0.187855-2.494909 7.12078-4.27204 6.521484-8.140625-0.219192-1.414932-1.79752-2.136649-3.820312-2.173828z" style="opacity:.2"/>
 <path d="m23.167969 5c-4.442842 0-5.274737 7-2.775391 7 2.498989 0 7.218418-7 2.775391-7zm-7.552735 1.015625c-2.54102 0.3402147-1.645976 4.897228-0.292968 4.982422 1.352458 0.0852 2.834905-5.3226357 0.292968-4.982422zm-4.095703 1.9902344c-0.12979 0.011259-0.269316 0.0396947-0.417969 0.0898437-2.3788903 0.8025532-0.361969 4.1171899 0.970704 3.8945309 1.250385-0.208415 1.394143-4.1533065-0.552735-3.9843746zm-3.128906 2.9941406c-0.2123451-0.0049-0.4410529 0.042923-0.6855469 0.158203-1.9550668 0.922388 0.6583356 3.152219 1.8085938 2.806641 1.0064781-0.30251 0.3633699-2.930686-1.1230469-2.964844zm9.289063 1.001953c-3.371322-0.061966-7.8177486 1.774926-8.5761724 5.464844-0.8214009 3.993129 3.3825354 9.533203 7.7675784 9.533203 2.157214 0 4.643861-2.116122 5.109375-4.796875 0.15616-0.897876-0.624441-1.212599-1.535157-1.203125-1.162736 0.012096-2.536785 0.571547-2.445312 1.330078 0.133192 1.105063-0.55201 1.679276-1.320312 1.697266-1.048962-0.132005-1.563171-0.760826-1.701172-1.710938-0.187855-2.494909 7.12078-4.27204 6.521484-8.140625-0.219192-1.414932-1.79752-2.136649-3.820312-2.173828z" style="fill:#ffffff"/>
 <path d="m23.167969 2c-1.898495 0-3.631706 0.8359048-4.769531 1.9609375-0.026891 0.026584-0.038114 0.0591165-0.064454 0.0859375-0.704275-0.9686299-1.434578-1.0468751-3.017578-1.0039062-1.216797-0.0429689-2.649789 1.1140213-3.345703 2.1289062-0.634357-0.2570637-1.233677-0.0619708-1.828125 0.0820312-1.3090558 0.4416292-2.5662564 1.649413-2.9570311 2.9667969-0.00625 0.021061 6.09e-5 0.0376268-0.0058594 0.0585938-0.2491807 0.071303-0.5284907 0.059731-0.7539063 0.1660156-1.143881 0.5396758-2.3686937 1.9991275-2.421875 3.4824215-0.0091499 0.255205 0.0084135 0.488734 0.0371094 0.712891 0.1870353-1.380578 1.3151418-2.6906708 2.3847656-3.1953125 0.2254156-0.1062846 0.5047256-0.0947126 0.7539063-0.1660156 0.0059203-0.020967-3.906e-4 -0.0375328 0.0058594-0.0585938 0.3907747-1.3173839 1.6479753-2.5251677 2.9570311-2.9667969 0.594448-0.144002 1.193768-0.3390949 1.828125-0.0820312 0.695914-1.0148849 2.128906-2.171875 3.345703-2.1289062 1.583-0.0429689 2.313303 0.0352763 3.017578 1.0039062 0.02634-0.026821 0.037563-0.0593535 0.064454-0.0859375 1.137825-1.1250327 2.871036-1.9609375 4.769531-1.9609375 0.949254 0 1.967741 0.1762632 2.90625 0.7929688 0.938508 0.6167054 1.607424 1.7031619 1.816406 2.6601562 0.050184 0.2298092 0.083695 0.4501753 0.105469 0.6640625 0.04633-0.507234 0.027778-1.0538822-0.105469-1.6640625-0.208982-0.9569943-0.877898-2.0434507-1.816406-2.6601562-0.938509-0.6167056-1.956996-0.7929688-2.90625-0.7929688zm-16.980469 14.789062c-0.0063612 0.025583-0.0180553 0.048034-0.0234375 0.074219h0.0019531c-0.1525954 0.741822-0.1917918 1.471128-0.1582031 2.1875 0.0261858-0.392208 0.0761572-0.788645 0.1582031-1.1875h-0.0019531c0.0656978-0.319636 0.2093407-0.591242 0.3085937-0.890625-0.0943976-0.061914-0.1895408-0.123721-0.2851562-0.183594zm17.945312 0.447266c-0.114758 2.113757 0.633031 3.847902 0.822266 5.69336 0.014017-0.071416 0.032406-0.140814 0.044922-0.212891 0-1.848382-0.739803-3.519176-0.867188-5.480469z" style="fill:#ffffff;opacity:.2"/>
</svg>

<svg xmlns="http://www.w3.org/2000/svg" width="32" height="32" version="1">
 <path d="m 23.167969,3 c -1.898495,0 -3.631705,0.8359048 -4.769531,1.9609375 -0.02689,0.026584 -0.03811,0.059116 -0.06445,0.085937 C 17.629713,4.0782446 16.9,4 15.317,4.0429688 14.100203,4 12.666617,5.1569901 11.970703,6.171875 11.336346,5.9148113 10.737026,6.109904 10.142578,6.253906 8.8335221,6.6955351 7.5763216,7.903319 7.1855469,9.2207029 c -0.00625,0.021061 6.03e-5,0.037627 -0.00586,0.058594 -0.2491807,0.071303 -0.5284908,0.059731 -0.7539063,0.1660156 -1.1438811,0.5396758 -2.3686938,1.9991275 -2.421875,3.4824215 -0.053181,1.483295 0.5990558,2.417677 1.1875,3.087891 0.3740244,0.425998 0.8406183,0.668028 1.28125,0.957031 -0.099253,0.299383 -0.2428959,0.570989 -0.3085937,0.890625 l 0.00195,0 c -0.669379,3.254096 0.5991548,6.314485 2.5195313,8.732422 C 10.605923,29.01364 13.41517,31 16.871094,31 20.99021,31 24.271905,27.909675 25,23.716797 25,20 22,17 27.029299,10.916018 27.679621,9.7012374 28.308589,8.3671136 27.890625,6.453125 27.681643,5.4961307 27.012727,4.4096743 26.074219,3.7929688 25.13571,3.1762632 24.117223,3 23.167969,3 Z" style="opacity:0.2"/>
 <path style="fill:#569c3b" d="m 23.167969,2 c -1.898495,0 -3.631705,0.8359048 -4.769531,1.9609375 -0.02689,0.026584 -0.03811,0.059116 -0.06445,0.085937 C 17.629713,3.0782446 16.9,3 15.317,3.0429688 14.100203,3 12.666617,4.1569901 11.970703,5.171875 11.336346,4.9148113 10.737026,5.109904 10.142578,5.253906 8.8335221,5.6955351 7.5763216,6.903319 7.1855469,8.2207029 c -0.00625,0.021061 6.03e-5,0.037627 -0.00586,0.058594 -0.2491807,0.071303 -0.5284908,0.059731 -0.7539063,0.1660156 -1.1438811,0.5396758 -2.3686938,1.9991275 -2.421875,3.4824215 -0.053181,1.483295 0.5990558,2.417677 1.1875,3.087891 0.3740244,0.425998 0.8406183,0.668028 1.28125,0.957031 -0.099253,0.299383 -0.2428959,0.570989 -0.3085937,0.890625 l 0.00195,0 c -0.669379,3.254096 0.5991548,6.314485 2.5195313,8.732422 C 10.605923,28.01364 13.41517,30 16.871094,30 20.99021,30 24.271905,26.909675 25,22.716797 25,19 22,16 27.029299,9.9160176 27.679621,8.7012374 28.308589,7.3671136 27.890625,5.453125 27.681643,4.4961307 27.012727,3.4096743 26.074219,2.7929688 25.13571,2.1762632 24.117223,2 23.167969,2 Z"/>
 <path d="m 23.167969,6 c -4.442842,0 -5.274737,7 -2.775391,7 2.498989,0 7.218418,-7 2.775391,-7 z m -7.552735,1.015625 c -2.54102,0.3402147 -1.645976,4.897228 -0.292968,4.982422 1.352458,0.0852 2.834905,-5.3226357 0.292968,-4.982422 z m -4.095703,1.9902344 c -0.12979,0.011259 -0.269316,0.039695 -0.417969,0.089844 -2.3788903,0.8025532 -0.361969,4.1171899 0.970704,3.8945309 1.250385,-0.208415 1.394143,-4.1533065 -0.552735,-3.9843746 z M 8.390625,12 C 8.1782799,11.9951 7.9495721,12.042923 7.7050781,12.158203 5.7500113,13.080591 8.3634137,15.310422 9.5136719,14.964844 10.52015,14.662334 9.8770418,12.034158 8.390625,12 Z m 9.289063,1.001953 C 14.308366,12.939987 9.8619394,14.776879 9.1035156,18.466797 8.2821147,22.459926 12.486051,28 16.871094,28 19.028308,28 21.514955,25.883878 21.980469,23.203125 22.136629,22.305249 21.356028,21.990526 20.445312,22 19.282576,22.012096 17.908527,22.571547 18,23.330078 c 0.133192,1.105063 -0.55201,1.679276 -1.320312,1.697266 -1.048962,-0.132005 -1.563171,-0.760826 -1.701172,-1.710938 -0.187855,-2.494909 7.12078,-4.27204 6.521484,-8.140625 -0.219192,-1.414932 -1.79752,-2.136649 -3.820312,-2.173828 z" style="opacity:0.2"/>
 <path style="fill:#ffffff" d="M 23.167969 5 C 18.725127 5 17.893232 12 20.392578 12 C 22.891567 12 27.610996 5 23.167969 5 z M 15.615234 6.015625 C 13.074214 6.3558397 13.969258 10.912853 15.322266 10.998047 C 16.674724 11.083247 18.157171 5.6754113 15.615234 6.015625 z M 11.519531 8.0058594 C 11.389741 8.0171184 11.250215 8.0455541 11.101562 8.0957031 C 8.7226717 8.8982563 10.739593 12.212893 12.072266 11.990234 C 13.322651 11.781819 13.466409 7.8369275 11.519531 8.0058594 z M 8.390625 11 C 8.1782799 10.9951 7.9495721 11.042923 7.7050781 11.158203 C 5.7500113 12.080591 8.3634137 14.310422 9.5136719 13.964844 C 10.52015 13.662334 9.8770418 11.034158 8.390625 11 z M 17.679688 12.001953 C 14.308366 11.939987 9.8619394 13.776879 9.1035156 17.466797 C 8.2821147 21.459926 12.486051 27 16.871094 27 C 19.028308 27 21.514955 24.883878 21.980469 22.203125 C 22.136629 21.305249 21.356028 20.990526 20.445312 21 C 19.282576 21.012096 17.908527 21.571547 18 22.330078 C 18.133192 23.435141 17.44799 24.009354 16.679688 24.027344 C 15.630726 23.895339 15.116517 23.266518 14.978516 22.316406 C 14.790661 19.821497 22.099296 18.044366 21.5 14.175781 C 21.280808 12.760849 19.70248 12.039132 17.679688 12.001953 z"/>
 <path style="opacity:0.2;fill:#ffffff" d="M 23.167969 2 C 21.269474 2 19.536263 2.8359048 18.398438 3.9609375 C 18.371547 3.9875215 18.360324 4.020054 18.333984 4.046875 C 17.629709 3.0782451 16.899406 2.9999999 15.316406 3.0429688 C 14.099609 2.9999999 12.666617 4.1569901 11.970703 5.171875 C 11.336346 4.9148113 10.737026 5.1099042 10.142578 5.2539062 C 8.8335222 5.6955354 7.5763216 6.9033192 7.1855469 8.2207031 C 7.1792969 8.2417641 7.1856078 8.2583299 7.1796875 8.2792969 C 6.9305068 8.3505999 6.6511968 8.3390279 6.4257812 8.4453125 C 5.2819002 8.9849883 4.0570875 10.44444 4.0039062 11.927734 C 3.9947563 12.182939 4.0123197 12.416468 4.0410156 12.640625 C 4.2280509 11.260047 5.3561574 9.9499542 6.4257812 9.4453125 C 6.6511968 9.3390279 6.9305068 9.3505999 7.1796875 9.2792969 C 7.1856078 9.2583299 7.1792969 9.2417641 7.1855469 9.2207031 C 7.5763216 7.9033192 8.8335222 6.6955354 10.142578 6.2539062 C 10.737026 6.1099042 11.336346 5.9148113 11.970703 6.171875 C 12.666617 5.1569901 14.099609 4 15.316406 4.0429688 C 16.899406 3.9999999 17.629709 4.0782451 18.333984 5.046875 C 18.360324 5.020054 18.371547 4.9875215 18.398438 4.9609375 C 19.536263 3.8359048 21.269474 3 23.167969 3 C 24.117223 3 25.13571 3.1762632 26.074219 3.7929688 C 27.012727 4.4096742 27.681643 5.4961307 27.890625 6.453125 C 27.940809 6.6829342 27.97432 6.9033003 27.996094 7.1171875 C 28.042424 6.6099535 28.023872 6.0633053 27.890625 5.453125 C 27.681643 4.4961307 27.012727 3.4096743 26.074219 2.7929688 C 25.13571 2.1762632 24.117223 2 23.167969 2 z M 6.1875 16.789062 C 6.1811388 16.814645 6.1694447 16.837096 6.1640625 16.863281 L 6.1660156 16.863281 C 6.0134202 17.605103 5.9742238 18.334409 6.0078125 19.050781 C 6.0339983 18.658573 6.0839697 18.262136 6.1660156 17.863281 L 6.1640625 17.863281 C 6.2297603 17.543645 6.3734032 17.272039 6.4726562 16.972656 C 6.3782586 16.910742 6.2831154 16.848935 6.1875 16.789062 z M 24.132812 17.236328 C 24.018054 19.350085 24.765843 21.08423 24.955078 22.929688 C 24.969095 22.858272 24.987484 22.788874 25 22.716797 C 25 20.868415 24.260197 19.197621 24.132812 17.236328 z"/>
</svg>
